src/lib/packages/icons/src/assets/line/money-bill-ban.svg

<svg xmlns="http://www.w3.org/2000/svg" width="24" height="24" fill="none"><path fill="currentColor" d="M12.75 18a.75.75 0 0 1-.75.75H5c-2.418 0-3.75-1.332-3.75-3.75V7c0-2.418 1.332-3.75 3.75-3.75h12c2.418 0 3.75 1.332 3.75 3.75v4a.75.75 0 0 1-1.5 0V7c0-1.577-.673-2.25-2.25-2.25H5c-1.577 0-2.25.673-2.25 2.25v8c0 1.577.673 2.25 2.25 2.25h7a.75.75 0 0 1 .75.75ZM4 11a1 1 0 1 0 2 0 1 1 0 0 0-2 0Zm10.75 0A3.754 3.754 0 0 1 11 14.75 3.754 3.754 0 0 1 7.25 11 3.754 3.754 0 0 1 11 7.25 3.754 3.754 0 0 1 14.75 11Zm-1.5 0A2.252 2.252 0 0 0 11 8.75 2.252 2.252 0 0 0 8.75 11 2.252 2.252 0 0 0 11 13.25 2.252 2.252 0 0 0 13.25 11Zm9.5 6.5a4.255 4.255 0 0 1-4.25 4.25 4.255 4.255 0 0 1-4.25-4.25 4.255 4.255 0 0 1 4.25-4.25 4.255 4.255 0 0 1 4.25 4.25Zm-7 0c0 .485.137.935.358 1.331l3.723-3.722a2.722 2.722 0 0 0-1.331-.359 2.753 2.753 0 0 0-2.75 2.75Zm5.5 0a2.72 2.72 0 0 0-.358-1.331l-3.723 3.722c.396.221.846.359 1.331.359a2.753 2.753 0 0 0 2.75-2.75Z"/></svg>

<svg width="24" height="24" viewBox="0 0 24 24" fill="none" xmlns="http://www.w3.org/2000/svg">
<path d="M12.75 18C12.75 18.414 12.414 18.75 12 18.75H5C2.582 18.75 1.25 17.418 1.25 15V7C1.25 4.582 2.582 3.25 5 3.25H17C19.418 3.25 20.75 4.582 20.75 7V11C20.75 11.414 20.414 11.75 20 11.75C19.586 11.75 19.25 11.414 19.25 11V7C19.25 5.423 18.577 4.75 17 4.75H5C3.423 4.75 2.75 5.423 2.75 7V15C2.75 16.577 3.423 17.25 5 17.25H12C12.414 17.25 12.75 17.586 12.75 18ZM4 11C4 11.552 4.448 12 5 12C5.552 12 6 11.552 6 11C6 10.448 5.552 10 5 10C4.448 10 4 10.448 4 11ZM14.75 11C14.75 13.068 13.068 14.75 11 14.75C8.932 14.75 7.25 13.068 7.25 11C7.25 8.932 8.932 7.25 11 7.25C13.068 7.25 14.75 8.932 14.75 11ZM13.25 11C13.25 9.759 12.241 8.75 11 8.75C9.759 8.75 8.75 9.759 8.75 11C8.75 12.241 9.759 13.25 11 13.25C12.241 13.25 13.25 12.241 13.25 11ZM22.75 17.5C22.75 19.844 20.843 21.75 18.5 21.75C16.157 21.75 14.25 19.844 14.25 17.5C14.25 15.156 16.157 13.25 18.5 13.25C20.843 13.25 22.75 15.156 22.75 17.5ZM15.75 17.5C15.75 17.985 15.887 18.435 16.108 18.831L19.831 15.109C19.435 14.888 18.985 14.75 18.5 14.75C16.983 14.75 15.75 15.984 15.75 17.5ZM21.25 17.5C21.25 17.015 21.113 16.565 20.892 16.169L17.169 19.891C17.565 20.112 18.015 20.25 18.5 20.25C20.017 20.25 21.25 19.016 21.25 17.5Z" fill="currentColor"/>
</svg>
